X: 15973
T: Grapefruit Tree, The
R: jig
M: 6/8
K: Dmixolydian
|:DED A2B|c2e dcA|GFG A2D|DED FED|
A2B c2e|dcA GFG|A2D FED|1 ECC EFG:|2 CDE GAc||
|:def efg|a2b age|d^cd e2A|ABA e2f|
g2b age|d^cd e2 A|cde dcA|1 GFG A2^c:|2 GFG A2D||

